public/files/perm/themes/base/flux/icons/group.svg

<svg enable-background="new 0 0 24 24" fill="#282573" height="40" viewBox="0 0 24 24" width="40" xmlns="http://www.w3.org/2000/svg"><path d="m0 0h24v24h-24z" fill="none"/><path d="m12 12.75c1.63 0 3.07.39 4.24.9 1.08.48 1.76 1.56 1.76 2.73v1.62h-12v-1.61c0-1.18.68-2.26 1.76-2.73 1.17-.52 2.61-.91 4.24-.91zm-8 .25c1.1 0 2-.9 2-2s-.9-2-2-2-2 .9-2 2 .9 2 2 2zm1.13 1.1c-.37-.06-.74-.1-1.13-.1-.99 0-1.93.21-2.78.58-.74.32-1.22 1.04-1.22 1.85v1.57h4.5v-1.61c0-.83.23-1.61.63-2.29zm14.87-1.1c1.1 0 2-.9 2-2s-.9-2-2-2-2 .9-2 2 .9 2 2 2zm4 3.43c0-.81-.48-1.53-1.22-1.85-.85-.37-1.79-.58-2.78-.58-.39 0-.76.04-1.13.1.4.68.63 1.46.63 2.29v1.61h4.5zm-12-10.43c1.66 0 3 1.34 3 3s-1.34 3-3 3-3-1.34-3-3 1.34-3 3-3z"/></svg>

<svg xmlns="http://www.w3.org/2000/svg" enable-background="new 0 0 24 24" height="40px" viewBox="0 0 24 24" width="40px" fill="#282573"><rect fill="none" height="24" width="24"/><g><path d="M12,12.75c1.63,0,3.07,0.39,4.24,0.9c1.08,0.48,1.76,1.56,1.76,2.73L18,18H6l0-1.61c0-1.18,0.68-2.26,1.76-2.73 C8.93,13.14,10.37,12.75,12,12.75z M4,13c1.1,0,2-0.9,2-2c0-1.1-0.9-2-2-2s-2,0.9-2,2C2,12.1,2.9,13,4,13z M5.13,14.1 C4.76,14.04,4.39,14,4,14c-0.99,0-1.93,0.21-2.78,0.58C0.48,14.9,0,15.62,0,16.43V18l4.5,0v-1.61C4.5,15.56,4.73,14.78,5.13,14.1z M20,13c1.1,0,2-0.9,2-2c0-1.1-0.9-2-2-2s-2,0.9-2,2C18,12.1,18.9,13,20,13z M24,16.43c0-0.81-0.48-1.53-1.22-1.85 C21.93,14.21,20.99,14,20,14c-0.39,0-0.76,0.04-1.13,0.1c0.4,0.68,0.63,1.46,0.63,2.29V18l4.5,0V16.43z M12,6c1.66,0,3,1.34,3,3 c0,1.66-1.34,3-3,3s-3-1.34-3-3C9,7.34,10.34,6,12,6z"/></g></svg>
